packages/vibrant-icons/assets/icons/PaperPlane/Fill.svg

<svg width="24" height="24" viewBox="0 0 24 24" fill="none" xmlns="http://www.w3.org/2000/svg">
<path d="M7.29263 10.641L1.26941 3.32714C1.16196 3.19667 1.25477 3 1.4238 3H22.6468C22.8022 3 22.8982 3.16959 22.8183 3.3029L11.2449 22.5919C11.1537 22.7438 10.9246 22.7109 10.8799 22.5395L8.2855 12.5944L12.8592 10.0588C12.9558 10.0052 12.9907 9.88335 12.937 9.78673L12.063 8.21358C12.0094 8.11696 11.8875 8.0822 11.7909 8.13598L7.29263 10.641Z" fill="#0C0C0C"/>
</svg>

<svg xmlns="http://www.w3.org/2000/svg" width="24" height="24" fill="none"><path fill="#0C0C0C" d="M7.293 10.641 1.269 3.327A.2.2 0 0 1 1.424 3h21.223a.2.2 0 0 1 .171.303L11.245 22.592a.2.2 0 0 1-.365-.052l-2.594-9.946 4.573-2.535a.2.2 0 0 0 .078-.272l-.874-1.573a.2.2 0 0 0-.272-.078z"/></svg>
